X:81
C:Page 41
T:Peace. MBe.81
S:Matthew Betham MS, Towcett Cumbria, 1815
O:England;Cumbria;Towcett
Z:VMP – Hugh Taylor, 2012
M:C
L:1/8
Q:1/4=120
R:.Strathspey
N:NB1-Not sure whether these notes have trills over them, or whether they are just splodges. I have assumed
N:splodges, as the last bar of the B part has the same notes with no trills.
K:Am
(3(ABA) c>A e>Ac>A|(3(GAG) B>G B>GBG|(3(ABA) c>A e>Ac>A|”^NB1″[ce][Bd][Ac][GB] A2 A2:|
|:(3(cdc) e>c g>cec|g>cec (3(GAG) BG|(3(cdc) e>c g>cec|[ce][Bd][Ac][GB] A2 A2:|

